src/assets/media/svg/sprite/skip-next.svg

<svg width="24" height="24" viewBox="0 0 24 24"  xmlns="http://www.w3.org/2000/svg">
<path d="M8.25 8.92499L0.75 3.82499V20.175L8.25 15.075V20.175L20.25 12V11.9625L8.25 3.82499V8.92499Z" />
<path d="M20.25 3V21H23.25V3H20.25Z" />
</svg>

<svg xmlns="http://www.w3.org/2000/svg" width="24" height="24"><path d="m8.25 8.925-7.5-5.1v16.35l7.5-5.1v5.1l12-8.175v-.037l-12-8.138zM20.25 3v18h3V3z"/></svg>
